layouts/icon-pack/weapon_gun.svg

<?xml version="1.0" encoding="UTF-8"?>
<svg width="1200pt" height="1200pt" version="1.1" viewBox="0 0 1200 1200" xmlns="http://www.w3.org/2000/svg">
 <g fill="#fff">
  <path d="m552.38 277.12c14.336-16.422 25.34-35.48 32.391-56.109 11.836-39.844-22.758-47.039-22.758-47.039s-34.594-7.2656-39.844 33.914c-1.8711 21.715 0.51563 43.586 7.0312 64.383 1.418 4.7305 5.3125 8.3047 10.148 9.3164 4.832 1.0117 9.832-0.69922 13.031-4.4648z"/>
  <path d="m1113.7 125.6-25.523-53.672c-1.5039-3.1797-4.207-5.6289-7.5156-6.8125-3.3125-1.1797-6.957-1-10.133 0.50781l-521.84 248.06c-5.875 2.7969-12.539 3.4727-18.855 1.9102-6.3164-1.5664-11.895-5.2734-15.785-10.488l-35.719-47.883c-3.6328-4.8438-10.008-6.7305-15.691-4.6484-5.6836 2.0859-9.3281 7.6523-8.9648 13.695 1.3125 23.688 0.52734 47.445-2.3438 70.992-2.6875 22.008-14.445 41.887-32.438 54.844l-42.773 30.75c-3.332 2.4023-5.8398 5.7812-7.1758 9.668-1.3359 3.8867-1.4297 8.0898-0.27734 12.035 1.7461 6.0703 4.8203 11.672 9 16.406l9.6562 10.898c11.305 12.785 26.75 21.18 43.625 23.719 16.879 2.5352 34.109-0.94922 48.672-9.8438l102.26-62.367c9.0117-5.5586 15.039-14.883 16.406-25.383 3.6836-26.191 20.348-48.75 44.297-59.977l292.57-137.95c17.176-8.0508 35.945-12.129 54.914-11.93h0.98438c12.801 0.23047 25.477-2.5469 37.008-8.1094l84.375-40.734c2.9375-3.9727 3.4258-9.2461 1.2656-13.688z"/>
  <path d="m1054.4 211.78-6.75 3.3047c-5.3828 2.5977-10.926 4.8516-16.594 6.75-4.3633 1.4531-8.168 4.2266-10.883 7.9414-2.7109 3.7109-4.1992 8.1797-4.2578 12.777-0.38672 20.328-6.1523 40.188-16.711 57.562l-3.3281 5.4844c-1.8828 3.0469-1.5039 6.9727 0.92969 9.6016 2.4297 2.6289 6.3164 3.3125 9.5 1.6719l73.875-37.242c5.3672-2.7188 9.4531-7.4258 11.395-13.121 1.9414-5.6914 1.5781-11.918-1.0117-17.348l-14.297-29.672c-1.8789-3.9219-5.2383-6.9336-9.3398-8.3789-4.0977-1.4453-8.6055-1.207-12.527 0.66797z"/>
  <path d="m621.77 563.7c9.9648-9.1562 20.98-17.102 32.812-23.672l179.84-101.46c18.844-10.641 34.906-25.586 46.875-43.617 6.2109-9.375 11.508-14.883 20.344-30.469 8.6602-15.355 18.289-30.141 28.828-44.273l36.188-48.328c3.3086-5.4414 5.6875-11.398 7.0312-17.625 0.95312-4.9844-0.95312-10.082-4.9492-13.211-3.9922-3.1328-9.4023-3.7656-14.012-1.6484l-0.91406 0.42188-292.97 138.05c-10.523 5.1133-17.746 15.203-19.195 26.812-3.207 23.352-16.77 44.012-36.914 56.25l-102.23 62.344c-23.375 14.281-51.031 19.879-78.125 15.816-27.09-4.0625-51.887-17.527-70.047-38.035-2.5117-2.8281-6.0352-4.5586-9.8086-4.8164-3.7734-0.25781-7.4961 0.97656-10.371 3.4336-258.54 220.59-252.35 479.13-247.85 533.34 0.51953 6.5742 1.8125 13.062 3.8438 19.336 17.672 53.906 47.391 74.016 72.961 80.719 22.855 5.6406 47.027 1.5664 66.773-11.25 96.703-61.125 107.62-166.59 107.62-166.59l9.1641-125.41c2.918-41.117 16.977-80.664 40.664-114.4 2.5508-3.6055 6.5156-5.9531 10.906-6.457 4.3867-0.50781 8.7812 0.87891 12.086 3.8086 22.57 20.273 44.367 22.547 59.836 20.203 3.3672-0.58594 5.9805-3.2656 6.4805-6.6445 0.5-3.3828-1.2227-6.7031-4.2773-8.2383-12.789-6.2617-22.531-17.387-27.047-30.891-2.2695-6.957-2.0547-14.488 0.60938-21.305 2.6641-6.8164 7.6094-12.5 13.992-16.078h0.16406l25.312-14.273c5.0195-2.8164 10.934-3.5859 16.508-2.1445 5.5742 1.4414 10.375 4.9805 13.398 9.8789 8.668 13.477 15.219 28.203 19.43 43.664 2.7031 11.598 2.0898 23.719-1.7695 34.984-3.8594 11.262-10.805 21.215-20.051 28.719l-14.062 11.578c-14.773 12.348-33.73 18.543-52.945 17.297h-0.72656c-12.328-1.0078-19.711 13.547-11.086 22.406 2.8438 2.9219 5.9844 5.5391 9.375 7.8047 22.266 14.859 51.797 12.938 72.984-3.4219l35.555-27.422c29.484-22.758 43.406-60.938 33.492-96.914-0.375-1.3438-0.77344-2.6797-1.1953-4.0078-6.8242-20.039-6.5352-41.816 0.82031-61.664 8.0547-20.094 20.59-38.082 36.656-52.594z"/>
 </g>
</svg>

<?xml version="1.0" encoding="UTF-8" standalone="no"?>
<!DOCTYPE svg PUBLIC "-//W3C//DTD SVG 1.1//EN" "http://www.w3.org/Graphics/SVG/1.1/DTD/svg11.dtd">
<svg width="100%" height="100%" viewBox="0 0 493 512" version="1.1" xmlns="http://www.w3.org/2000/svg" xmlns:xlink="http://www.w3.org/1999/xlink" xml:space="preserve" xmlns:serif="http://www.serif.com/" style="fill-rule:evenodd;clip-rule:evenodd;stroke-linejoin:round;stroke-miterlimit:2;">
    <g transform="matrix(1,0,0,1,-85.0427,-64.3451)">
        <g transform="matrix(0.477967,0,0,0.477967,44.3951,33.5903)">
            <path d="M552.38,277.12C566.716,260.698 577.72,241.64 584.771,221.011C596.607,181.167 562.013,173.972 562.013,173.972C562.013,173.972 527.419,166.706 522.169,207.886C520.298,229.601 522.685,251.472 529.2,272.269C530.618,276.999 534.513,280.574 539.348,281.585C544.18,282.597 549.18,280.886 552.379,277.121L552.38,277.12Z" style="fill:white;fill-rule:nonzero;"/>
            <path d="M1113.7,125.6L1088.18,71.928C1086.67,68.748 1083.97,66.299 1080.66,65.115C1077.35,63.936 1073.7,64.115 1070.53,65.623L548.688,313.683C542.813,316.48 536.149,317.156 529.833,315.594C523.517,314.027 517.938,310.32 514.048,305.106L478.329,257.223C474.697,252.379 468.321,250.492 462.638,252.574C456.955,254.66 453.31,260.226 453.674,266.269C454.986,289.957 454.201,313.714 451.33,337.261C448.642,359.269 436.885,379.148 418.892,392.105L376.119,422.855C372.787,425.257 370.279,428.636 368.943,432.523C367.607,436.41 367.513,440.613 368.666,444.558C370.412,450.628 373.486,456.23 377.666,460.964L387.322,471.862C398.627,484.647 414.072,493.042 430.947,495.581C447.826,498.116 465.056,494.632 479.619,485.737L581.879,423.37C590.891,417.812 596.918,408.487 598.285,397.987C601.968,371.796 618.633,349.237 642.582,338.01L935.152,200.06C952.328,192.01 971.097,187.931 990.066,188.13L991.05,188.13C1003.85,188.361 1016.53,185.583 1028.06,180.021L1112.43,139.287C1115.37,135.314 1115.86,130.041 1113.7,125.599L1113.7,125.6Z" style="fill:white;fill-rule:nonzero;"/>
            <path d="M1054.4,211.78L1047.65,215.085C1042.27,217.682 1036.72,219.936 1031.06,221.835C1026.69,223.288 1022.89,226.061 1020.17,229.776C1017.46,233.487 1015.97,237.956 1015.92,242.553C1015.53,262.881 1009.76,282.741 999.204,300.115L995.876,305.6C993.993,308.646 994.372,312.572 996.806,315.201C999.235,317.83 1003.12,318.514 1006.31,316.873L1080.18,279.631C1085.55,276.912 1089.63,272.205 1091.58,266.51C1093.52,260.819 1093.15,254.592 1090.56,249.162L1076.27,219.49C1074.39,215.568 1071.03,212.556 1066.93,211.111C1062.83,209.666 1058.32,209.904 1054.4,211.779L1054.4,211.78Z" style="fill:white;fill-rule:nonzero;"/>
            <path d="M621.77,563.7C631.735,554.544 642.75,546.598 654.582,540.028L834.422,438.568C853.266,427.927 869.328,412.982 881.297,394.951C887.508,385.576 892.805,380.068 901.641,364.482C910.301,349.127 919.93,334.341 930.469,320.209L966.657,271.881C969.966,266.44 972.345,260.483 973.688,254.256C974.641,249.272 972.735,244.174 968.739,241.045C964.747,237.912 959.337,237.279 954.727,239.397L953.813,239.818L660.843,377.868C650.32,382.982 643.097,393.071 641.648,404.68C638.441,428.032 624.878,448.692 604.734,460.93L502.504,523.274C479.129,537.555 451.473,543.153 424.379,539.09C397.289,535.028 372.492,521.563 354.332,501.055C351.82,498.227 348.297,496.497 344.523,496.239C340.75,495.981 337.027,497.216 334.152,499.673C75.612,720.263 81.802,978.803 86.302,1033.01C86.822,1039.59 88.115,1046.08 90.146,1052.35C107.818,1106.26 137.537,1126.37 163.107,1133.07C185.962,1138.71 210.134,1134.63 229.88,1121.82C326.583,1060.69 337.5,955.228 337.5,955.228L346.664,829.818C349.582,788.701 363.641,749.154 387.328,715.418C389.879,711.812 393.844,709.465 398.234,708.961C402.621,708.453 407.015,709.84 410.32,712.769C432.89,733.042 454.687,735.316 470.156,732.972C473.523,732.386 476.137,729.707 476.637,726.328C477.137,722.945 475.414,719.625 472.359,718.089C459.57,711.828 449.828,700.702 445.312,687.198C443.043,680.241 443.258,672.71 445.922,665.893C448.586,659.077 453.531,653.393 459.914,649.815L460.078,649.815L485.39,635.542C490.409,632.726 496.324,631.957 501.898,633.398C507.472,634.839 512.273,638.378 515.296,643.277C523.964,656.754 530.515,671.48 534.726,686.941C537.429,698.539 536.816,710.66 532.956,721.925C529.097,733.187 522.151,743.14 512.905,750.644L498.843,762.222C484.07,774.57 465.113,780.765 445.898,779.519L445.172,779.519C432.844,778.511 425.461,793.066 434.086,801.925C436.93,804.847 440.07,807.464 443.461,809.73C465.727,824.589 495.258,822.668 516.445,806.308L552,778.886C581.484,756.128 595.406,717.948 585.492,681.972C585.117,680.628 584.718,679.292 584.297,677.964C577.472,657.925 577.761,636.148 585.117,616.3C593.172,596.206 605.707,578.218 621.773,563.706L621.77,563.7Z" style="fill:white;fill-rule:nonzero;"/>
        </g>
    </g>
</svg>
